src/assets/images/icon-vkontakte.svg

<svg width="24" height="24" viewBox="0 0 24 24" fill="none" xmlns="http://www.w3.org/2000/svg">
<path d="M23.8421 20.5527C23.8421 22.3698 22.3697 23.8422 20.5526 23.8422H3.44737C1.63092 23.8422 0.157898 22.3698 0.157898 20.5527V3.44743C0.157898 1.63033 1.63092 0.157959 3.44737 0.157959H20.5526C22.3697 0.157959 23.8421 1.63033 23.8421 3.44743V20.5527Z" fill="#0288D1"/>
<path d="M17.1928 12.4165C16.7086 11.8882 16.0605 11.5409 15.254 11.3692L14.8053 11.3001C15.3671 11.0632 15.8059 10.6955 16.125 10.1922C16.4447 9.69088 16.6053 9.12114 16.6053 8.47772C16.6053 5.42114 12.5947 5.42114 11.6355 5.42114H7.39474V18.579H12.6967C13.6053 18.579 14.3493 18.4955 14.9375 18.3317C15.5276 18.1659 16.0697 17.8889 16.5612 17.5021C16.9757 17.1757 17.3072 16.7692 17.5513 16.2744C17.798 15.779 17.9211 15.2034 17.9211 14.5494C17.9211 13.6554 17.6776 12.9448 17.1928 12.4165ZM10.6842 8.05272H11.8829C11.8829 8.05272 13.3178 8.01127 13.3178 9.36851C13.3178 10.7257 11.9243 10.6843 11.9243 10.6843H10.6842V8.05272ZM12.6296 15.9475C12.3033 15.9613 11.7151 15.9527 10.8612 15.9527H10.6842V12.658H12.6862C13.0342 12.6672 14.6316 12.6054 14.6316 14.2764C14.6316 15.9475 12.9559 15.9356 12.6296 15.9475Z" fill="white"/>
</svg>

<svg width="24" height="24" viewBox="0 0 24 24" 
    xmlns="http://www.w3.org/2000/svg" fill="none">
    <path d="M23.842 20.553c0 1.817-1.472 3.289-3.289 3.289h-17.105c-1.816 0-3.289-1.472-3.289-3.289v-17.105c0-1.817 1.473-3.289 3.289-3.289h17.105c1.817 0 3.289 1.472 3.289 3.289v17.105z" fill="#0288D1"/>
    <path d="M17.193 12.416c-.484-.528-1.132-.876-1.939-1.047l-.449-.069c.562-.237 1.001-.605 1.32-1.108.32-.501.48-1.071.48-1.714 0-3.057-4.011-3.057-4.97-3.057h-4.241v13.158h5.302c.909 0 1.653-.084 2.241-.247.59-.166 1.132-.443 1.624-.83.415-.326.746-.733.99-1.228.247-.495.37-1.071.37-1.725 0-.894-.243-1.605-.728-2.133zm-6.509-4.364h1.199s1.435-.041 1.435 1.316-1.393 1.316-1.393 1.316h-1.24v-2.632zm1.945 7.895c-.326.014-.915.005-1.768.005h-.177v-3.295h2.002c.348.009 1.945-.053 1.945 1.618s-1.676 1.659-2.002 1.671z" fill="#fff"/>
</svg>
